;FLAVOR:UltiGCode
;TIME:1234
;MATERIAL:536
;MATERIAL2:0
;NOZZLE_DIAMETER:0.25
;Generated with Cura_SteamEngine 2.5.0

;LAYER_COUNT:142
;LAYER:0
M107
G0 F7200 X104.566 Y104.254 Z0.17
;TYPE:SKIRT
G1 F1800 X105.17 Y103.727 E0.02998
G1 X105.676 Y103.359 E0.05338
G1 X106.193 Y103.013 E0.07665
G1 X106.88 Y102.601 E0.10661
G1 X107.605 Y102.259 E0.13659
G1 X108.212 Y102.038 E0.16075
G1 X108.687 Y101.886 E0.1794
G1 X109.461 Y101.68 E0.20935
G1 X110.252 Y101.553 E0.23932
G1 X111.429 Y101.509 E0.28337
G1 X112.298 Y101.541 E0.31589
G1 X113.097 Y101.611 E0.34589
G1 X113.884 Y101.759 E0.37584
G1 X114.966 Y102.103 E0.4183
G1 X115.427 Y102.286 E0.43685
G1 X116.156 Y102.618 E0.46681
G1 X116.848 Y103.021 E0.49676
G1 X117.178 Y103.249 E0.51176
G1 X117.582 Y103.542 E0.53042
G1 X118.207 Y104.044 E0.56041
G1 X118.778 Y104.606 E0.59037
G1 X119.488 Y105.498 E0.63301
G1 X119.974 Y106.206 E0.66513
G1 X120.394 Y106.888 E0.69508
G1 X120.744 Y107.609 E0.72506
G1 X121.02 Y108.361 E0.75501
G1 X121.22 Y109.137 E0.78499
G1 X121.342 Y109.929 E0.81496
G1 X121.384 Y110.729 E0.84492
G1 X121.346 Y111.529 E0.87487
G1 X121.345 Y111.534 E0.87506
G1 X121.361 Y111.661 E0.87985
G1 X121.38 Y112.462 E0.90981
G1 X121.319 Y113.261 E0.93978
G1 X121.179 Y114.05 E0.96975
G1 X120.96 Y114.821 E0.99973
G1 X120.666 Y115.566 E1.02968
G1 X120.3 Y116.278 E1.05962
G1 X119.979 Y116.786 E1.0821
G1 X119.495 Y117.493 E1.11414
G1 X119.01 Y118.131 E1.14412
G1 X118.464 Y118.717 E1.17407
G1 X117.588 Y119.454 E1.21689
G1 X117.186 Y119.746 E1.23547
G1 X116.515 Y120.184 E1.26544
G1 X115.804 Y120.553 E1.2954
G1 X115.433 Y120.711 E1.31048
G1 X114.97 Y120.895 E1.32911
G1 X114.211 Y121.154 E1.35911
G1 X113.049 Y121.395 E1.40349
G1 X112.554 Y121.46 E1.42216
G1 X111.756 Y121.524 E1.4521
G1 X110.955 Y121.509 E1.48207
G1 X109.831 Y121.351 E1.52452
G1 X108.984 Y121.17 E1.55691
G1 X108.21 Y120.963 E1.58687
G1 X107.46 Y120.681 E1.61684
G1 X106.742 Y120.325 E1.64681
G1 X106.184 Y119.982 E1.67131
G1 X105.666 Y119.634 E1.69465
G1 X105.024 Y119.155 E1.72461
G1 X104.433 Y118.614 E1.75457
G1 X103.899 Y118.017 E1.78453
G1 X103.543 Y117.541 E1.80676
G1 X103.045 Y116.822 E1.83947
G1 X102.622 Y116.142 E1.86942
G1 X102.269 Y115.422 E1.89941
G1 X101.99 Y114.671 E1.92938
G1 X101.787 Y113.896 E1.95934
G1 X101.662 Y113.105 E1.98929
G1 X101.616 Y112.305 E2.01926
G1 X101.651 Y111.504 E2.04924
G1 X101.655 Y111.473 E2.05041
G1 X101.639 Y111.339 E2.05546
G1 X101.62 Y110.538 E2.08543
G1 X101.681 Y109.739 E2.1154
G1 X101.821 Y108.95 E2.14537
G1 X102.04 Y108.179 E2.17534
G1 X102.334 Y107.434 E2.2053
G1 X102.7 Y106.722 E2.23524
G1 X103.036 Y106.192 E2.25871
G1 X103.531 Y105.474 E2.29132
G1 X104.018 Y104.838 E2.32128
G1 X104.566 Y104.254 E2.35123
G0 F7200 X104.735 Y104.397
G1 F1800 X105.332 Y103.879 E2.38079
G1 X105.798 Y103.541 E2.40232
G1 X106.315 Y103.195 E2.42559
G1 X106.993 Y102.79 E2.45513
G1 X107.709 Y102.455 E2.48469
G1 X108.279 Y102.248 E2.50737
G1 X108.754 Y102.096 E2.52603
G1 X109.518 Y101.893 E2.55559
G1 X110.298 Y101.769 E2.58513
G1 X111.421 Y101.729 E2.62716
G1 X112.29 Y101.761 E2.65968
G1 X113.078 Y101.83 E2.68926
G1 X113.854 Y101.978 E2.71881
G1 X114.885 Y102.307 E2.75928
G1 X115.346 Y102.49 E2.77783
G1 X116.064 Y102.818 E2.80736
G1 X117.049 Y103.427 E2.85067
G1 X117.453 Y103.72 E2.86933
G1 X118.069 Y104.215 E2.89889
G1 X118.631 Y104.771 E2.92845
G1 X119.307 Y105.622 E2.9691
G1 X119.793 Y106.33 E3.00122
G1 X120.207 Y107.003 E3.03077
G1 X120.55 Y107.715 E3.06033
G1 X120.82 Y108.458 E3.08989
G1 X121.013 Y109.224 E3.11944
G1 X121.128 Y110.006 E3.149
G1 X121.164 Y110.795 E3.17854
G1 X121.121 Y111.543 E3.20656
G1 X121.152 Y111.84 E3.21773
G1 X121.154 Y112.63 E3.24727
G1 X121.075 Y113.417 E3.27685
G1 X120.918 Y114.191 E3.30639
G1 X120.683 Y114.945 E3.33593
G1 X120.373 Y115.672 E3.36549
G1 X119.798 Y116.662 E3.40831
G1 X119.314 Y117.369 E3.44035
G1 X118.835 Y117.997 E3.46989
G1 X118.295 Y118.574 E3.49945
G1 X117.459 Y119.276 E3.54027
G1 X117.057 Y119.568 E3.55886
G1 X116.395 Y119.999 E3.5884
G1 X115.351 Y120.507 E3.63182
G1 X114.888 Y120.691 E3.65046
G1 X114.14 Y120.945 E3.68
G1 X113.021 Y121.177 E3.72274
G1 X112.526 Y121.242 E3.74141
G1 X111.738 Y121.305 E3.77098
G1 X110.948 Y121.288 E3.80053
G1 X109.877 Y121.136 E3.84099
G1 X109.03 Y120.955 E3.87338
G1 X108.266 Y120.751 E3.90296
G1 X107.528 Y120.47 E3.93249
G1 X106.821 Y120.117 E3.96204
G1 X106.307 Y119.8 E3.98463
G1 X105.789 Y119.452 E4.00797
G1 X105.156 Y118.979 E4.03752
G1 X104.574 Y118.444 E4.06709
G1 X104.05 Y117.853 E4.09663
G1 X103.724 Y117.416 E4.11702
G1 X103.226 Y116.697 E4.14973
G1 X102.809 Y116.025 E4.17931
G1 X102.463 Y115.315 E4.20885
G1 X102.19 Y114.574 E4.23838
G1 X101.993 Y113.808 E4.26796
G1 X101.875 Y113.027 E4.2975
G1 X101.836 Y112.238 E4.32705
G1 X101.877 Y111.449 E4.3566
G1 X101.877 Y111.446 E4.35671
G1 X101.848 Y111.16 E4.36746
G1 X101.846 Y110.37 E4.39701
G1 X101.925 Y109.583 E4.42659
G1 X102.082 Y108.809 E4.45613
G1 X102.317 Y108.055 E4.48566
G1 X102.627 Y107.328 E4.51522
G1 X103.217 Y106.317 E4.559
G1 X103.712 Y105.599 E4.59162
G1 X104.193 Y104.972 E4.62117
G1 X104.735 Y104.397 E4.65072
G0 F7200 X104.903 Y104.54
G1 F1800 X105.493 Y104.032 E4.67984
G1 X105.921 Y103.724 E4.69956
G1 X106.438 Y103.378 E4.72283
G1 X107.106 Y102.979 E4.75193
G1 X107.812 Y102.65 E4.78106
G1 X108.346 Y102.457 E4.8023
G1 X108.821 Y102.305 E4.82095
G1 X109.574 Y102.106 E4.85008
G1 X110.343 Y101.985 E4.87919
G1 X111.413 Y101.949 E4.91923
G1 X112.282 Y101.981 E4.95176
G1 X113.058 Y102.05 E4.98089
G1 X113.823 Y102.197 E5.01003
G1 X114.803 Y102.511 E5.04852
G1 X115.264 Y102.694 E5.06707
G1 X115.973 Y103.019 E5.09624
G1 X116.92 Y103.605 E5.13789
G1 X117.324 Y103.898 E5.15655
G1 X117.93 Y104.387 E5.18567
G1 X118.483 Y104.936 E5.21482
G1 X119.126 Y105.747 E5.25353
G1 X119.612 Y106.455 E5.28564
G1 X120.019 Y107.119 E5.31477
G1 X120.356 Y107.821 E5.34389
G1 X120.619 Y108.554 E5.37302
G1 X120.806 Y109.31 E5.40215
G1 X120.915 Y110.082 E5.43131
G1 X120.943 Y110.86 E5.46042
G1 X120.899 Y111.527 E5.48542
G1 X120.939 Y112.017 E5.50381
G1 X120.923 Y112.796 E5.53295
G1 X120.827 Y113.569 E5.56208
G1 X120.653 Y114.328 E5.5912
G1 X120.401 Y115.066 E5.62037
G1 X120.076 Y115.773 E5.64947
G1 X119.616 Y116.538 E5.68286
G1 X119.132 Y117.245 E5.7149
G1 X118.66 Y117.864 E5.74401
G1 X118.126 Y118.432 E5.77317
G1 X117.33 Y119.098 E5.81199
G1 X116.928 Y119.39 E5.83057
G1 X116.275 Y119.815 E5.85971
G1 X115.27 Y120.302 E5.90148
G1 X114.807 Y120.486 E5.92011
G1 X114.069 Y120.737 E5.94926
G1 X112.992 Y120.958 E5.99038
G1 X112.497 Y121.023 E6.00906
G1 X111.721 Y121.085 E6.03817
G1 X110.942 Y121.067 E6.06731
G1 X109.923 Y120.92 E6.10582
G1 X109.076 Y120.739 E6.13821
G1 X108.323 Y120.538 E6.16736
G1 X107.596 Y120.26 E6.19647
G1 X106.9 Y119.909 E6.22562
G1 X106.429 Y119.617 E6.24635
G1 X105.911 Y119.269 E6.26969
G1 X105.288 Y118.802 E6.29881
G1 X104.716 Y118.274 E6.32792
G1 X104.2 Y117.689 E6.35709
G1 X103.904 Y117.291 E6.37565
G1 X103.406 Y116.572 E6.40836
G1 X102.996 Y115.909 E6.43751
G1 X102.656 Y115.209 E6.46662
G1 X102.39 Y114.477 E6.49574
G1 X102.2 Y113.721 E6.5249
G1 X102.088 Y112.95 E6.55404
G1 X102.056 Y112.172 E6.58316
G1 X102.1 Y111.461 E6.6098
G1 X102.061 Y110.983 E6.62774
G1 X102.077 Y110.204 E6.65688
G1 X102.173 Y109.431 E6.68601
G1 X102.347 Y108.672 E6.71513
G1 X102.599 Y107.934 E6.7443
G1 X102.924 Y107.227 E6.7734
G1 X103.398 Y106.442 E6.8077
G1 X103.893 Y105.724 E6.84031
G1 X104.368 Y105.106 E6.86946
G1 X104.903 Y104.54 E6.89859
G0 F7200 X105.071 Y104.684
G1 F1800 X105.655 Y104.186 E6.9273
G1 X106.043 Y103.907 E6.94517
G1 X106.56 Y103.561 E6.96844
G1 X107.219 Y103.168 E6.99713
G1 X107.916 Y102.846 E7.02585
G1 X108.413 Y102.667 E7.0456
G1 X108.888 Y102.515 E7.06426
G1 X109.63 Y102.319 E7.09296
G1 X110.389 Y102.202 E7.12168
G1 X111.405 Y102.169 E7.1597
G1 X112.274 Y102.201 E7.19222
G1 X113.039 Y102.269 E7.22095
G1 X113.792 Y102.416 E7.24964
G1 X114.722 Y102.716 E7.28619
G1 X115.183 Y102.899 E7.30474
G1 X115.881 Y103.219 E7.33346
G1 X116.791 Y103.783 E7.3735
G1 X117.195 Y104.076 E7.39216
G1 X117.792 Y104.558 E7.42086
G1 X118.336 Y105.1 E7.44958
G1 X118.944 Y105.871 E7.4863
G1 X119.43 Y106.579 E7.51842
G1 X119.831 Y107.234 E7.54714
G1 X120.162 Y107.926 E7.57583
G1 X120.418 Y108.65 E7.60455
G1 X120.599 Y109.396 E7.63326
G1 X120.7 Y110.157 E7.66197
G1 X120.722 Y110.924 E7.69067
G1 X120.68 Y111.477 E7.71141
G1 X120.723 Y112.192 E7.7382
G1 X120.689 Y112.959 E7.76691
G1 X120.575 Y113.718 E7.79562
G1 X120.383 Y114.462 E7.82436
G1 X120.115 Y115.181 E7.85305
G1 X119.774 Y115.868 E7.88174
G1 X119.434 Y116.413 E7.90576
G1 X118.95 Y117.12 E7.93781
G1 X118.484 Y117.73 E7.96652
G1 X117.958 Y118.288 E7.9952
G1 X117.2 Y118.92 E8.03211
G1 X116.798 Y119.212 E8.05069
G1 X116.155 Y119.63 E8.07937
G1 X115.189 Y120.098 E8.11952
G1 X114.726 Y120.282 E8.13815
G1 X113.999 Y120.528 E8.16686
G1 X112.964 Y120.74 E8.20637
G1 X112.469 Y120.805 E8.22504
G1 X111.703 Y120.865 E8.25378
G1 X110.936 Y120.846 E8.28247
G1 X109.969 Y120.705 E8.31902
G1 X109.122 Y120.524 E8.35141
G1 X108.381 Y120.325 E8.38011
G1 X107.664 Y120.05 E8.40883
G1 X106.98 Y119.701 E8.43755
G1 X106.552 Y119.435 E8.45639
G1 X106.034 Y119.087 E8.47973
G1 X105.42 Y118.626 E8.50845
G1 X104.857 Y118.104 E8.53716
G1 X104.352 Y117.526 E8.56587
G1 X104.085 Y117.165 E8.58266
G1 X103.587 Y116.446 E8.61537
G1 X103.184 Y115.793 E8.64407
G1 X102.85 Y115.102 E8.67278
G1 X102.59 Y114.38 E8.70148
G1 X102.407 Y113.634 E8.7302
G1 X102.302 Y112.874 E8.7589
G1 X102.277 Y112.107 E8.7876
G1 X102.319 Y111.515 E8.80979
G1 X102.277 Y110.808 E8.83628
G1 X102.311 Y110.041 E8.865
G1 X102.425 Y109.282 E8.8937
G1 X102.617 Y108.538 E8.92244
G1 X102.885 Y107.819 E8.95114
G1 X103.226 Y107.132 E8.97982
G1 X103.579 Y106.567 E9.00474
G1 X104.074 Y105.849 E9.03735
G1 X104.542 Y105.24 E9.06608
G1 X105.071 Y104.684 E9.09478
G0 F7200 X105.239 Y104.828
G1 F1800 X105.816 Y104.339 E9.12307
G1 X106.165 Y104.09 E9.1391
G1 X106.682 Y103.744 E9.16237
G1 X107.332 Y103.357 E9.19066
G1 X108.019 Y103.041 E9.21894
G1 X108.48 Y102.876 E9.23726
G1 X108.955 Y102.724 E9.25591
G1 X109.686 Y102.532 E9.28418
G1 X110.434 Y102.418 E9.31247
G1 X111.397 Y102.389 E9.34851
G1 X112.266 Y102.421 E9.38103
G1 X113.019 Y102.489 E9.40931
G1 X113.761 Y102.635 E9.43759
G1 X114.641 Y102.92 E9.47218
G1 X115.102 Y103.103 E9.49073
G1 X115.789 Y103.419 E9.51902
G1 X116.662 Y103.961 E9.55745
G1 X117.066 Y104.254 E9.57611
G1 X117.653 Y104.73 E9.60438
G1 X118.188 Y105.265 E9.63267
G1 X118.763 Y105.996 E9.66746
G1 X119.249 Y106.704 E9.69957
G1 X119.643 Y107.349 E9.72784
G1 X119.967 Y108.032 E9.75611
G1 X120.217 Y108.745 E9.78437
G1 X120.391 Y109.481 E9.81266
G1 X120.485 Y110.231 E9.84093
G1 X120.5 Y110.987 E9.86921
G1 X120.457 Y111.488 E9.88801
G1 X120.474 Y111.609 E9.89258
G1 X120.502 Y112.365 E9.92088
G1 X120.45 Y113.119 E9.94914
G1 X120.319 Y113.864 E9.97743
G1 X120.109 Y114.59 E10.0057
G1 X119.824 Y115.29 E10.03397
G1 X119.467 Y115.957 E10.06226
G1 X119.253 Y116.289 E10.07703
G1 X118.769 Y116.996 E10.10908
G1 X118.309 Y117.596 E10.13735
G1 X117.789 Y118.145 E10.16563
G1 X117.071 Y118.742 E10.20056
G1 X116.669 Y119.034 E10.21914
G1 X116.035 Y119.445 E10.2474
G1 X115.108 Y119.894 E10.28592
G1 X114.645 Y120.078 E10.30455
G1 X113.928 Y120.319 E10.33284
G1 X112.935 Y120.522 E10.37075
G1 X112.44 Y120.587 E10.38942
G1 X111.686 Y120.646 E10.41771
G1 X110.93 Y120.625 E10.44599
G1 X110.015 Y120.49 E10.48059
G1 X109.168 Y120.309 E10.51298
G1 X108.438 Y120.112 E10.54126
G1 X107.733 Y119.839 E10.56953
G1 X107.06 Y119.494 E10.59782
G1 X106.675 Y119.252 E10.61482
G1 X106.157 Y118.904 E10.63816
G1 X105.552 Y118.45 E10.66645
G1 X104.999 Y117.934 E10.69474
G1 X104.504 Y117.363 E10.723
G1 X104.266 Y117.04 E10.73801
G1 X103.768 Y116.321 E10.77072
G1 X103.371 Y115.678 E10.79898
G1 X103.044 Y114.996 E10.82727
G1 X102.791 Y114.284 E10.85553
G1 X102.615 Y113.548 E10.88383
G1 X102.517 Y112.799 E10.91208
G1 X102.499 Y112.043 E10.94036
G1 X102.543 Y111.509 E10.9604
G1 X102.526 Y111.391 E10.96486
G1 X102.498 Y110.635 E10.99316
G1 X102.55 Y109.881 E11.02142
G1 X102.681 Y109.136 E11.04971
G1 X102.891 Y108.41 E11.07798
G1 X103.176 Y107.71 E11.10625
G1 X103.533 Y107.043 E11.13454
G1 X103.76 Y106.692 E11.15017
G1 X104.255 Y105.974 E11.18279
G1 X104.717 Y105.375 E11.21108
G1 X105.239 Y104.828 E11.23936
G0 F7200 X105.407 Y104.972
G1 F1800 X105.977 Y104.494 E11.26718
G1 X106.288 Y104.273 E11.28145
G1 X106.805 Y103.927 E11.30472
G1 X107.445 Y103.547 E11.33255
G1 X108.122 Y103.237 E11.3604
G1 X108.547 Y103.086 E11.37727
G1 X109.022 Y102.934 E11.39592
G1 X109.742 Y102.745 E11.42376
G1 X110.478 Y102.635 E11.4516
G1 X111.389 Y102.609 E11.48568
G1 X112.258 Y102.641 E11.5182
G1 X112.999 Y102.708 E11.54603
G1 X113.729 Y102.854 E11.57387
G1 X114.56 Y103.125 E11.60656
G1 X115.021 Y103.308 E11.62511
G1 X115.697 Y103.619 E11.65294
G1 X116.533 Y104.139 E11.68976
G1 X116.937 Y104.432 E11.70843
G1 X117.515 Y104.901 E11.73627
G1 X118.039 Y105.429 E11.76409
G1 X118.581 Y106.12 E11.79693
G1 X119.067 Y106.828 E11.82905
G1 X119.455 Y107.463 E11.85688
G1 X119.772 Y108.137 E11.88474
G1 X120.016 Y108.84 E11.91257
G1 X120.182 Y109.566 E11.94042
G1 X120.27 Y110.305 E11.96826
G1 X120.278 Y111.049 E11.99608
G1 X120.234 Y111.505 E12.01322
G1 X120.268 Y111.79 E12.02395
G1 X120.277 Y112.534 E12.05178
G1 X120.207 Y113.275 E12.07962
G1 X120.057 Y114.004 E12.10745
G1 X119.83 Y114.713 E12.1353
G1 X119.529 Y115.394 E12.16314
G1 X119.071 Y116.165 E12.19668
G1 X118.587 Y116.872 E12.22873
G1 X118.135 Y117.462 E12.25652
G1 X117.621 Y118.001 E12.28438
G1 X116.942 Y118.564 E12.31737
G1 X116.54 Y118.856 E12.33595
G1 X115.915 Y119.26 E12.36378
G1 X115.026 Y119.689 E12.4007
G1 X114.563 Y119.873 E12.41933
G1 X113.858 Y120.11 E12.44715
G1 X112.906 Y120.304 E12.48349
G1 X112.411 Y120.369 E12.50216
G1 X111.669 Y120.426 E12.52999
G1 X110.925 Y120.403 E12.55783
G1 X110.061 Y120.275 E12.5905
G1 X109.214 Y120.094 E12.62289
G1 X108.495 Y119.9 E12.65074
G1 X107.802 Y119.629 E12.67857
G1 X107.141 Y119.286 E12.70642
G1 X106.797 Y119.069 E12.72163
G1 X106.279 Y118.721 E12.74497
G1 X105.685 Y118.274 E12.77278
G1 X105.142 Y117.765 E12.80061
G1 X104.447 Y116.915 E12.84168
G1 X103.949 Y116.196 E12.87439
G1 X103.559 Y115.562 E12.90223
G1 X103.239 Y114.89 E12.93006
G1 X102.992 Y114.188 E12.95789
G1 X102.823 Y113.463 E12.98574
G1 X102.732 Y112.724 E13.01358
G1 X102.721 Y111.98 E13.04141
G1 X102.766 Y111.494 E13.05967
G1 X102.732 Y111.21 E13.07036
G1 X102.723 Y110.466 E13.09819
G1 X102.793 Y109.725 E13.12603
G1 X102.943 Y108.996 E13.15386
G1 X103.17 Y108.287 E13.18171
G1 X103.471 Y107.606 E13.20955
G1 X103.941 Y106.817 E13.2439
G1 X104.436 Y106.099 E13.27652
G1 X104.891 Y105.509 E13.30438
G1 X105.407 Y104.972 E13.33224
G0 F7200 X105.574 Y105.117
G1 F1800 X106.41 Y104.456 E13.37209
G1 X106.927 Y104.11 E13.39536
G1 X107.557 Y103.736 E13.42276
G1 X108.224 Y103.433 E13.45016
G1 X108.614 Y103.295 E13.46563
G1 X109.089 Y103.143 E13.48429
G1 X109.798 Y102.958 E13.51169
G1 X110.522 Y102.852 E13.53906
G1 X111.381 Y102.829 E13.57119
G1 X112.25 Y102.861 E13.60372
G1 X112.979 Y102.927 E13.63109
G1 X113.697 Y103.073 E13.6585
G1 X114.479 Y103.329 E13.68927
G1 X114.94 Y103.512 E13.70782
G1 X115.605 Y103.819 E13.73521
G1 X116.403 Y104.317 E13.77039
G1 X116.807 Y104.61 E13.78906
G1 X117.376 Y105.072 E13.81647
G1 X117.891 Y105.593 E13.84387
G1 X118.4 Y106.245 E13.8748
G1 X118.886 Y106.953 E13.90692
G1 X119.267 Y107.578 E13.9343
G1 X119.577 Y108.241 E13.96167
G1 X119.814 Y108.935 E13.9891
G1 X119.973 Y109.65 E14.01649
G1 X120.054 Y110.377 E14.04385
G1 X120.054 Y111.11 E14.07126
G1 X120.011 Y111.502 E14.08601
G1 X120.057 Y111.969 E14.10356
G1 X120.048 Y112.701 E14.13094
G1 X119.959 Y113.428 E14.15834
G1 X119.791 Y114.141 E14.18573
G1 X119.547 Y114.831 E14.2131
G1 X119.228 Y115.491 E14.24052
G1 X118.89 Y116.04 E14.26463
G1 X118.406 Y116.747 E14.29668
G1 X117.96 Y117.328 E14.32407
G1 X117.453 Y117.857 E14.35147
G1 X116.812 Y118.386 E14.38256
G1 X116.41 Y118.678 E14.40114
G1 X115.795 Y119.075 E14.42852
G1 X114.945 Y119.485 E14.46381
G1 X114.482 Y119.669 E14.48244
G1 X113.788 Y119.902 E14.50982
