;FLAVOR:UltiGCode
;TIME:1810
;MATERIAL:784
;MATERIAL2:0
;NOZZLE_DIAMETER:0.25
;Generated with Cura_SteamEngine 2.5.0

;LAYER_COUNT:177
;LAYER:0
M107
G0 F7200 X104.631 Y104.198 Z0.17
;TYPE:SKIRT
G1 F1800 X105.235 Y103.671 E0.02998
G1 X105.753 Y103.296 E0.0539
G1 X106.154 Y103.029 E0.07191
G1 X106.842 Y102.619 E0.10187
G1 X107.885 Y102.157 E0.14453
G1 X108.338 Y101.994 E0.16254
G1 X109.105 Y101.761 E0.19252
G1 X110.222 Y101.564 E0.23494
G1 X110.7 Y101.514 E0.25291
G1 X111.5 Y101.47 E0.28288
G1 X112.3 Y101.507 E0.31283
G1 X112.965 Y101.598 E0.33793
G1 X113.595 Y101.712 E0.36188
G1 X114.375 Y101.894 E0.39183
G1 X115.134 Y102.153 E0.42183
G1 X116.02 Y102.57 E0.45845
G1 X116.581 Y102.877 E0.48237
G1 X117.264 Y103.296 E0.51234
G1 X117.901 Y103.781 E0.54228
G1 X118.719 Y104.576 E0.58494
G1 X119.206 Y105.122 E0.6123
G1 X119.708 Y105.746 E0.64226
G1 X120.147 Y106.417 E0.67224
G1 X120.4 Y106.886 E0.69217
G1 X120.541 Y107.169 E0.704
G1 X120.862 Y107.903 E0.73396
G1 X121.109 Y108.666 E0.76396
G1 X121.278 Y109.449 E0.79391
G1 X121.368 Y110.245 E0.82387
G1 X121.379 Y111.046 E0.85383
G1 X121.34 Y111.486 E0.87036
G1 X121.362 Y111.661 E0.87695
G1 X121.381 Y112.462 E0.90692
G1 X121.32 Y113.261 E0.93689
G1 X121.18 Y114.05 E0.96686
G1 X120.961 Y114.821 E0.99683
G1 X120.531 Y115.851 E1.03858
G1 X120.391 Y116.13 E1.05025
G1 X119.996 Y116.828 E1.08025
G1 X119.335 Y117.727 E1.12198
G1 X118.918 Y118.218 E1.14607
G1 X118.369 Y118.802 E1.17605
G1 X117.765 Y119.329 E1.20603
G1 X117.247 Y119.704 E1.22995
G1 X116.846 Y119.971 E1.24796
G1 X116.158 Y120.381 E1.27792
G1 X115.115 Y120.843 E1.32058
G1 X114.662 Y121.006 E1.33859
G1 X113.895 Y121.239 E1.36857
G1 X112.764 Y121.438 E1.41152
G1 X112.287 Y121.487 E1.42945
G1 X111.486 Y121.529 E1.45945
G1 X110.686 Y121.491 E1.4894
G1 X110.05 Y121.403 E1.51341
G1 X109.419 Y121.29 E1.53739
G1 X108.639 Y121.11 E1.56733
G1 X107.88 Y120.853 E1.5973
G1 X106.976 Y120.428 E1.63466
G1 X106.414 Y120.12 E1.65863
G1 X105.731 Y119.7 E1.68861
G1 X105.094 Y119.215 E1.71856
G1 X104.28 Y118.422 E1.76106
G1 X103.794 Y117.877 E1.78837
G1 X103.291 Y117.254 E1.81832
G1 X102.853 Y116.583 E1.84828
G1 X102.6 Y116.114 E1.86821
G1 X102.459 Y115.831 E1.88004
G1 X102.138 Y115.097 E1.91
G1 X101.891 Y114.334 E1.94
G1 X101.722 Y113.551 E1.96995
G1 X101.632 Y112.755 E1.99991
G1 X101.621 Y111.954 E2.02987
G1 X101.66 Y111.514 E2.0464
G1 X101.638 Y111.339 E2.05299
G1 X101.619 Y110.538 E2.08296
G1 X101.68 Y109.739 E2.11293
G1 X101.82 Y108.95 E2.1429
G1 X102.039 Y108.179 E2.17287
G1 X102.469 Y107.149 E2.21462
G1 X102.609 Y106.87 E2.22629
G1 X103.004 Y106.172 E2.25629
G1 X103.665 Y105.273 E2.29802
G1 X104.082 Y104.782 E2.32211
G1 X104.631 Y104.198 E2.35209
G0 F7200 X104.791 Y104.349
G1 F1800 X105.388 Y103.831 E2.38165
G1 X105.875 Y103.479 E2.40412
G1 X106.276 Y103.212 E2.42214
G1 X106.955 Y102.808 E2.45169
G1 X107.96 Y102.364 E2.49278
G1 X108.413 Y102.201 E2.51079
G1 X109.169 Y101.972 E2.54033
G1 X110.244 Y101.782 E2.58116
G1 X110.722 Y101.732 E2.59913
G1 X111.512 Y101.69 E2.62872
G1 X112.301 Y101.728 E2.65826
G1 X112.926 Y101.815 E2.68187
G1 X113.556 Y101.929 E2.70581
G1 X114.325 Y102.109 E2.73535
G1 X115.072 Y102.365 E2.76488
G1 X115.914 Y102.763 E2.79971
G1 X116.475 Y103.07 E2.82363
G1 X117.148 Y103.484 E2.85318
G1 X117.776 Y103.964 E2.88274
G1 X118.554 Y104.722 E2.92337
G1 X119.041 Y105.268 E2.95073
G1 X119.537 Y105.884 E2.98031
G1 X119.968 Y106.546 E3.00985
G1 X120.203 Y106.984 E3.02844
G1 X120.344 Y107.267 E3.04027
G1 X120.661 Y107.991 E3.06983
G1 X120.902 Y108.744 E3.0994
G1 X121.066 Y109.517 E3.12895
G1 X121.151 Y110.302 E3.15848
G1 X121.156 Y111.092 E3.18803
G1 X121.118 Y111.498 E3.20328
G1 X121.153 Y111.84 E3.21614
G1 X121.155 Y112.63 E3.24568
G1 X121.076 Y113.417 E3.27526
G1 X120.919 Y114.191 E3.3048
G1 X120.684 Y114.945 E3.33434
G1 X120.334 Y115.753 E3.36727
G1 X120.194 Y116.032 E3.37895
G1 X119.805 Y116.719 E3.40847
G1 X119.167 Y117.585 E3.4487
G1 X118.75 Y118.076 E3.47279
G1 X118.209 Y118.651 E3.50232
G1 X117.612 Y119.169 E3.53188
G1 X117.125 Y119.521 E3.55436
G1 X116.724 Y119.788 E3.57237
G1 X116.045 Y120.192 E3.60192
G1 X115.04 Y120.636 E3.64301
G1 X114.587 Y120.799 E3.66102
G1 X113.831 Y121.028 E3.69056
G1 X112.741 Y121.219 E3.73195
G1 X112.264 Y121.268 E3.74988
G1 X111.475 Y121.309 E3.77943
G1 X110.686 Y121.27 E3.80898
G1 X110.089 Y121.187 E3.83152
G1 X109.458 Y121.074 E3.85549
G1 X108.689 Y120.895 E3.88502
G1 X107.941 Y120.64 E3.91458
G1 X107.082 Y120.235 E3.9501
G1 X106.52 Y119.927 E3.97407
G1 X105.847 Y119.513 E4.00362
G1 X105.219 Y119.032 E4.0332
G1 X104.444 Y118.276 E4.07369
G1 X103.958 Y117.731 E4.101
G1 X103.463 Y117.115 E4.13056
G1 X103.032 Y116.453 E4.1601
G1 X102.797 Y116.016 E4.17866
G1 X102.656 Y115.733 E4.19049
G1 X102.339 Y115.009 E4.22005
G1 X102.098 Y114.256 E4.24961
G1 X101.934 Y113.483 E4.27917
G1 X101.849 Y112.698 E4.3087
G1 X101.844 Y111.908 E4.33825
G1 X101.882 Y111.502 E4.3535
G1 X101.847 Y111.16 E4.36635
G1 X101.845 Y110.37 E4.3959
G1 X101.924 Y109.583 E4.42548
G1 X102.081 Y108.809 E4.45502
G1 X102.316 Y108.055 E4.48456
G1 X102.666 Y107.247 E4.51749
G1 X102.806 Y106.968 E4.52916
G1 X103.195 Y106.281 E4.55869
G1 X103.833 Y105.415 E4.59892
G1 X104.25 Y104.924 E4.62301
G1 X104.791 Y104.349 E4.65254
G0 F7200 X104.952 Y104.5
G1 F1800 X105.541 Y103.99 E4.68168
G1 X105.996 Y103.662 E4.70266
G1 X106.397 Y103.395 E4.72067
G1 X107.067 Y102.997 E4.74982
G1 X108.034 Y102.571 E4.78934
G1 X108.487 Y102.408 E4.80734
G1 X109.233 Y102.182 E4.8365
G1 X110.267 Y102.001 E4.87576
G1 X110.745 Y101.951 E4.89373
G1 X111.523 Y101.91 E4.92287
G1 X112.301 Y101.949 E4.952
G1 X112.886 Y102.031 E4.9741
G1 X113.516 Y102.145 E4.99804
G1 X114.275 Y102.323 E5.0272
G1 X115.011 Y102.578 E5.05633
G1 X115.809 Y102.956 E5.08935
G1 X116.37 Y103.263 E5.11327
G1 X117.033 Y103.671 E5.14239
G1 X117.651 Y104.146 E5.17154
G1 X118.39 Y104.869 E5.2102
G1 X118.877 Y105.415 E5.23757
G1 X119.365 Y106.022 E5.26669
G1 X119.788 Y106.676 E5.29582
G1 X120.006 Y107.082 E5.31306
G1 X120.147 Y107.365 E5.32488
G1 X120.459 Y108.079 E5.35403
G1 X120.695 Y108.822 E5.38318
G1 X120.854 Y109.584 E5.4123
G1 X120.934 Y110.359 E5.44143
G1 X120.934 Y111.138 E5.47057
G1 X120.897 Y111.492 E5.48388
G1 X120.94 Y112.017 E5.50358
G1 X120.924 Y112.796 E5.53272
G1 X120.828 Y113.569 E5.56185
G1 X120.654 Y114.328 E5.59098
G1 X120.402 Y115.066 E5.62014
G1 X120.138 Y115.654 E5.64425
G1 X119.998 Y115.933 E5.65592
G1 X119.613 Y116.61 E5.68505
G1 X118.999 Y117.442 E5.72372
G1 X118.582 Y117.933 E5.74782
G1 X118.048 Y118.5 E5.77695
G1 X117.459 Y119.01 E5.80609
G1 X117.004 Y119.338 E5.82706
G1 X116.603 Y119.605 E5.84508
G1 X115.933 Y120.003 E5.87423
G1 X114.966 Y120.429 E5.91375
G1 X114.513 Y120.592 E5.93175
G1 X113.767 Y120.818 E5.9609
G1 X112.719 Y121 E6.00069
G1 X112.242 Y121.049 E6.01862
G1 X111.464 Y121.089 E6.04776
G1 X110.686 Y121.049 E6.07689
G1 X110.128 Y120.97 E6.09797
G1 X109.497 Y120.857 E6.12194
G1 X108.738 Y120.681 E6.15108
G1 X108.002 Y120.427 E6.1802
G1 X107.187 Y120.042 E6.21391
G1 X106.625 Y119.734 E6.23788
G1 X105.962 Y119.325 E6.26702
G1 X105.345 Y118.85 E6.29614
G1 X104.608 Y118.13 E6.33467
G1 X104.122 Y117.585 E6.36198
G1 X103.634 Y116.977 E6.39114
G1 X103.211 Y116.323 E6.42027
G1 X102.994 Y115.918 E6.43746
G1 X102.853 Y115.635 E6.44928
G1 X102.541 Y114.921 E6.47842
G1 X102.305 Y114.178 E6.50758
G1 X102.146 Y113.416 E6.53669
G1 X102.066 Y112.641 E6.56583
G1 X102.066 Y111.862 E6.59496
G1 X102.103 Y111.508 E6.60828
G1 X102.06 Y110.983 E6.62798
G1 X102.076 Y110.204 E6.65712
G1 X102.172 Y109.431 E6.68625
G1 X102.346 Y108.672 E6.71537
G1 X102.598 Y107.934 E6.74454
G1 X102.862 Y107.346 E6.76865
G1 X103.002 Y107.067 E6.78032
G1 X103.387 Y106.39 E6.80945
G1 X104.001 Y105.558 E6.84812
G1 X104.418 Y105.067 E6.87221
G1 X104.952 Y104.5 E6.90134
G0 F7200 X105.112 Y104.651
G1 F1800 X105.694 Y104.15 E6.93006
G1 X106.118 Y103.845 E6.9496
G1 X106.519 Y103.578 E6.96762
G1 X107.18 Y103.187 E6.99634
G1 X108.109 Y102.778 E7.0343
G1 X108.562 Y102.615 E7.05231
G1 X109.297 Y102.393 E7.08102
G1 X110.29 Y102.22 E7.11872
G1 X110.768 Y102.17 E7.13669
G1 X111.535 Y102.13 E7.16542
G1 X112.301 Y102.17 E7.19411
G1 X112.847 Y102.248 E7.21473
G1 X113.477 Y102.362 E7.23868
G1 X114.224 Y102.538 E7.26738
G1 X114.949 Y102.79 E7.29609
G1 X115.703 Y103.149 E7.32732
G1 X116.264 Y103.456 E7.35124
G1 X116.917 Y103.859 E7.37994
G1 X117.525 Y104.328 E7.40866
G1 X118.226 Y105.015 E7.44536
G1 X118.713 Y105.561 E7.47273
G1 X119.193 Y106.16 E7.50143
G1 X119.609 Y106.805 E7.53014
G1 X119.81 Y107.18 E7.54605
G1 X119.951 Y107.463 E7.55788
G1 X120.257 Y108.167 E7.58659
G1 X120.488 Y108.899 E7.61529
G1 X120.642 Y109.651 E7.644
G1 X120.716 Y110.415 E7.67271
G1 X120.711 Y111.183 E7.70143
G1 X120.68 Y111.461 E7.7119
G1 X120.724 Y112.192 E7.73928
G1 X120.69 Y112.959 E7.768
G1 X120.576 Y113.718 E7.7967
G1 X120.384 Y114.462 E7.82544
G1 X120.116 Y115.181 E7.85414
G1 X119.941 Y115.555 E7.86958
G1 X119.801 Y115.834 E7.88126
G1 X119.422 Y116.502 E7.90998
G1 X118.831 Y117.3 E7.94712
G1 X118.414 Y117.791 E7.97121
G1 X117.888 Y118.349 E7.99989
G1 X117.306 Y118.85 E8.02861
G1 X116.882 Y119.155 E8.04815
G1 X116.481 Y119.422 E8.06616
G1 X115.82 Y119.813 E8.09489
G1 X114.891 Y120.222 E8.13285
G1 X114.438 Y120.385 E8.15086
G1 X113.703 Y120.607 E8.17957
G1 X112.696 Y120.781 E8.21779
G1 X112.219 Y120.83 E8.23572
G1 X111.452 Y120.869 E8.26445
G1 X110.686 Y120.828 E8.29314
G1 X110.167 Y120.754 E8.31274
G1 X109.536 Y120.641 E8.33672
G1 X108.788 Y120.466 E8.36545
G1 X108.063 Y120.215 E8.39414
G1 X107.293 Y119.849 E8.42603
G1 X106.731 Y119.541 E8.45
G1 X106.078 Y119.138 E8.4787
G1 X105.47 Y118.668 E8.50744
G1 X104.772 Y117.983 E8.54401
G1 X104.286 Y117.438 E8.57132
G1 X103.806 Y116.839 E8.60003
G1 X103.391 Y116.194 E8.62872
G1 X103.19 Y115.82 E8.6446
G1 X103.049 Y115.537 E8.65642
G1 X102.743 Y114.833 E8.68513
G1 X102.512 Y114.101 E8.71384
G1 X102.358 Y113.349 E8.74255
G1 X102.284 Y112.585 E8.77125
G1 X102.289 Y111.817 E8.79998
G1 X102.32 Y111.539 E8.81044
G1 X102.276 Y110.808 E8.83783
G1 X102.31 Y110.041 E8.86654
G1 X102.424 Y109.282 E8.89525
G1 X102.616 Y108.538 E8.92398
G1 X102.884 Y107.819 E8.95268
G1 X103.059 Y107.445 E8.96813
G1 X103.199 Y107.166 E8.9798
G1 X103.578 Y106.498 E9.00852
G1 X104.169 Y105.7 E9.04566
G1 X104.586 Y105.209 E9.06976
G1 X105.112 Y104.651 E9.09844
G0 F7200 X105.272 Y104.802
G1 F1800 X105.847 Y104.31 E9.12674
G1 X106.24 Y104.029 E9.14481
G1 X106.641 Y103.762 E9.16282
G1 X107.292 Y103.376 E9.19113
G1 X108.183 Y102.985 E9.22752
G1 X108.636 Y102.822 E9.24553
G1 X109.36 Y102.604 E9.27381
G1 X110.313 Y102.439 E9.30998
G1 X110.791 Y102.389 E9.32795
G1 X111.546 Y102.35 E9.35623
G1 X112.301 Y102.391 E9.38451
G1 X112.808 Y102.464 E9.40366
G1 X113.438 Y102.578 E9.42761
G1 X114.174 Y102.752 E9.45589
G1 X114.887 Y103.003 E9.48416
G1 X115.597 Y103.342 E9.51359
G1 X116.158 Y103.649 E9.53751
G1 X116.802 Y104.046 E9.5658
G1 X117.399 Y104.509 E9.59406
G1 X118.062 Y105.162 E9.62886
G1 X118.549 Y105.708 E9.65622
G1 X119.022 Y106.298 E9.6845
G1 X119.429 Y106.934 E9.71274
G1 X119.613 Y107.278 E9.72734
G1 X119.754 Y107.561 E9.73916
G1 X120.055 Y108.255 E9.76745
G1 X120.281 Y108.977 E9.79575
G1 X120.429 Y109.718 E9.82401
G1 X120.499 Y110.471 E9.85229
G1 X120.488 Y111.227 E9.88057
G1 X120.457 Y111.484 E9.89025
G1 X120.475 Y111.609 E9.89497
G1 X120.503 Y112.365 E9.92327
G1 X120.451 Y113.119 E9.95153
G1 X120.32 Y113.864 E9.97982
G1 X120.11 Y114.59 E10.00809
G1 X119.745 Y115.457 E10.04327
G1 X119.605 Y115.736 E10.05495
G1 X119.23 Y116.393 E10.08324
G1 X118.664 Y117.157 E10.1188
G1 X118.247 Y117.648 E10.14289
G1 X117.728 Y118.198 E10.17117
G1 X117.153 Y118.69 E10.19948
G1 X116.76 Y118.971 E10.21755
G1 X116.359 Y119.238 E10.23556
G1 X115.708 Y119.624 E10.26387
G1 X114.817 Y120.015 E10.30026
G1 X114.364 Y120.178 E10.31827
G1 X113.64 Y120.396 E10.34654
G1 X112.674 Y120.563 E10.38321
G1 X112.197 Y120.612 E10.40114
G1 X111.442 Y120.649 E10.42941
G1 X110.687 Y120.606 E10.4577
G1 X110.206 Y120.537 E10.47587
G1 X109.575 Y120.424 E10.49984
G1 X108.839 Y120.252 E10.52811
G1 X108.125 Y120.002 E10.55641
G1 X107.399 Y119.656 E10.58648
G1 X106.837 Y119.348 E10.61045
G1 X106.194 Y118.95 E10.63873
G1 X105.597 Y118.487 E10.66699
G1 X104.937 Y117.837 E10.70164
G1 X104.451 Y117.292 E10.72895
G1 X103.978 Y116.702 E10.75723
G1 X103.57 Y116.065 E10.78552
G1 X103.387 Y115.722 E10.80006
G1 X103.246 Y115.439 E10.81188
G1 X102.945 Y114.745 E10.84018
G1 X102.719 Y114.023 E10.86847
G1 X102.571 Y113.282 E10.89673
G1 X102.501 Y112.529 E10.92501
G1 X102.512 Y111.773 E10.95329
G1 X102.543 Y111.516 E10.96297
G1 X102.525 Y111.391 E10.9677
G1 X102.497 Y110.635 E10.99599
G1 X102.549 Y109.881 E11.02426
G1 X102.68 Y109.136 E11.05255
G1 X102.89 Y108.41 E11.08081
G1 X103.255 Y107.543 E11.116
G1 X103.395 Y107.264 E11.12767
G1 X103.77 Y106.607 E11.15596
G1 X104.336 Y105.843 E11.19152
G1 X104.753 Y105.352 E11.21562
G1 X105.272 Y104.802 E11.2439
G0 F7200 X105.432 Y104.953
G1 F1800 X105.999 Y104.471 E11.27173
G1 X106.362 Y104.212 E11.28841
G1 X106.763 Y103.945 E11.30643
G1 X107.404 Y103.566 E11.33428
G1 X108.258 Y103.192 E11.36914
G1 X108.711 Y103.029 E11.38715
G1 X109.424 Y102.815 E11.41499
G1 X110.336 Y102.658 E11.4496
G1 X110.814 Y102.608 E11.46758
G1 X111.557 Y102.57 E11.4954
G1 X112.301 Y102.612 E11.52327
G1 X112.769 Y102.681 E11.54096
G1 X113.399 Y102.795 E11.56491
G1 X114.123 Y102.966 E11.59273
G1 X114.825 Y103.215 E11.62059
G1 X115.492 Y103.535 E11.64826
G1 X116.053 Y103.842 E11.67217
G1 X116.686 Y104.234 E11.70002
G1 X117.273 Y104.691 E11.72784
G1 X117.898 Y105.308 E11.76069
G1 X118.385 Y105.854 E11.78805
G1 X118.85 Y106.435 E11.81588
G1 X119.416 Y107.377 E11.85699
G1 X119.557 Y107.66 E11.86881
G1 X119.852 Y108.343 E11.89664
G1 X120.073 Y109.053 E11.92445
G1 X120.216 Y109.784 E11.9523
G1 X120.28 Y110.525 E11.98012
G1 X120.264 Y111.27 E12.00799
G1 X120.234 Y111.501 E12.0167
G1 X120.269 Y111.79 E12.02759
G1 X120.278 Y112.534 E12.05542
G1 X120.208 Y113.275 E12.08325
G1 X120.058 Y114.004 E12.11109
G1 X119.831 Y114.713 E12.13893
G1 X119.548 Y115.358 E12.16527
G1 X119.408 Y115.637 E12.17695
G1 X119.039 Y116.283 E12.20477
G1 X118.496 Y117.015 E12.23886
G1 X118.079 Y117.506 E12.26295
G1 X117.568 Y118.047 E12.29078
G1 X117.001 Y118.529 E12.31862
G1 X116.638 Y118.788 E12.3353
G1 X116.237 Y119.055 E12.35331
G1 X115.596 Y119.434 E12.38116
G1 X114.742 Y119.808 E12.41603
G1 X114.289 Y119.971 E12.43404
G1 X113.576 Y120.185 E12.46188
G1 X112.651 Y120.344 E12.49698
G1 X112.174 Y120.393 E12.51491
G1 X111.431 Y120.429 E12.54274
G1 X110.688 Y120.385 E12.57057
G1 X110.244 Y120.32 E12.58735
G1 X109.613 Y120.207 E12.61133
G1 X108.889 Y120.037 E12.63914
G1 X108.187 Y119.79 E12.66698
G1 X107.504 Y119.463 E12.6953
G1 X106.942 Y119.155 E12.71927
G1 X106.31 Y118.763 E12.74708
G1 X105.723 Y118.305 E12.77493
G1 X105.101 Y117.69 E12.80764
G1 X104.615 Y117.145 E12.83495
G1 X104.15 Y116.564 E12.86278
G1 X103.584 Y115.623 E12.90385
G1 X103.443 Y115.34 E12.91568
G1 X103.148 Y114.657 E12.9435
G1 X102.927 Y113.947 E12.97131
G1 X102.784 Y113.216 E12.99917
G1 X102.72 Y112.475 E13.02699
G1 X102.736 Y111.73 E13.05485
G1 X102.766 Y111.499 E13.06357
G1 X102.731 Y111.21 E13.07445
G1 X102.722 Y110.466 E13.10228
G1 X102.792 Y109.725 E13.13012
G1 X102.942 Y108.996 E13.15795
G1 X103.169 Y108.287 E13.1858
G1 X103.452 Y107.642 E13.21214
G1 X103.592 Y107.363 E13.22381
G1 X103.961 Y106.717 E13.25164
G1 X104.504 Y105.985 E13.28573
G1 X104.921 Y105.494 E13.30982
G1 X105.432 Y104.953 E13.33765
G0 F7200 X105.592 Y105.105
G1 F1800 X106.151 Y104.631 E13.36506
G1 X106.484 Y104.395 E13.38033
G1 X106.885 Y104.128 E13.39834
G1 X107.516 Y103.756 E13.42574
G1 X108.332 Y103.399 E13.45905
G1 X108.785 Y103.236 E13.47706
G1 X109.487 Y103.026 E13.50446
G1 X110.359 Y102.876 E13.53755
G1 X110.837 Y102.826 E13.55553
G1 X111.568 Y102.79 E13.5829
G1 X112.3 Y102.834 E13.61033
G1 X112.73 Y102.897 E13.62658
G1 X113.36 Y103.011 E13.65052
G1 X114.072 Y103.181 E13.6779
G1 X114.762 Y103.427 E13.7053
G1 X115.386 Y103.728 E13.73121
G1 X115.947 Y104.035 E13.75513
G1 X116.57 Y104.421 E13.78254
G1 X117.146 Y104.873 E13.80992
